luts/portra800.cube
# Simple Kodak Portra 800 LUT (2x2x2)
LUT_3D_SIZE 2
LUT_3D_INPUT_RANGE 0.0 1.0

0.0 0.0 0.0
1.0 0.8 0.6

0.0 1.0 0.0
1.0 1.8 1.4

0.0 1.0 1.0
1.0 1.8 1.8

1.0 0.0 0.0
1.8 1.0 0.8
